X:1
T:The Yorkshire Bite -- Reel
R:reel
B:Ryan's Mammoth Collection
N: 291
Z: Contributed by Ray Davies,  ray:davies99.freeserve.co.uk
M:2/4
L:1/16
K:Ador
  vA2(ed) Bdef | g2(dg) BgdB | A2(ed) Bdef | gfgd B2A2 |
   A2(ed) Bdef | g2(dg) BgdB | A2(ed) Bdef | gfgd B2A2  :|
|:va2(ed) cdef | g2(dg) Bgdg | a2(ed) cdef | gfgd B2A2 |
   a2(ed) cdef | g2(dg) Bgdg | afge   fdef | gfgd B2A2  :|
